X:4
T:Maskoto
O:Macedoine (Mer Egee)
M:7/4
L:1/8
K:F
FGABcd ecde fdef | cdefga bgab c'abc' ||
|: dc d2 e2 fdef g4 | dc d2 e2 fdef g4 |
gf f4 d3 c B4 | gf f4 d3 c B4 |
Bc d4 ef f2 c2 cB | Bc d2 z2 f4 c3 B |
B2 B3 A G3 F d2 dc | B2 B3 A G3 F G4 |
B2 B3 A G3 F d2 dc | B2 B3 A G3 F G4 :|
|: gfefga bgaf (3gfe dc | gfefga bgaf g4 :|
